src/assets/images/export-icon-w.svg

<?xml version="1.0" encoding="UTF-8"?>
<svg version="1.1" viewBox="0 0 24 22" xmlns="http://www.w3.org/2000/svg">
<title>export(2)</title>
<desc>Created with Sketch.</desc>
<g fill="none" fill-rule="evenodd">
<g transform="translate(0 -1)" fill="#fff">
<g transform="translate(0 1)">
<path d="m11.413 15.294c-0.54033 0-0.97826-0.438-0.97826-0.97826s0.438-0.97826 0.97826-0.97826l4.2391 6.53e-5h1.9565v-1.0435-3.1306h-1.9565-1.3835-4.8122c-0.5402 0-0.97826-0.438-0.97826-0.97826v-4.8122-1.3835-1.9565h-7.5c-0.5402 0-0.97826 0.438-0.97826 0.97826v19.565c0 0.54026 0.43807 0.97826 0.97826 0.97826h15.652c0.54033 0 0.97826-0.438 0.97826-0.97826v-3.2825-2h-1.9565l-4.2391-6.52e-5z"/>
<path d="m23.93 14.219c-0.0014348-0.014674-0.0041739-0.028826-0.0062609-0.043304-0.0024782-0.017152-0.0044347-0.034304-0.0078261-0.051261-0.003326-0.016565-0.0077608-0.032544-0.01187-0.048717-0.0037826-0.014739-0.0069783-0.029544-0.011413-0.044152-0.0047608-0.015783-0.010696-0.031109-0.016239-0.0465-0.0052826-0.014674-0.010109-0.029478-0.016044-0.043956-6e-3 -0.014413-0.012978-0.028174-0.01963-0.04213-0.0069783-0.015-0.01363-0.03-0.021456-0.044609-0.0071739-0.01337-0.015326-0.026087-0.023152-0.03913-0.0086087-0.014413-0.016761-0.028891-0.026087-0.042913-0.0095217-0.014283-0.020217-0.027717-0.030456-0.041413-0.0088695-0.01187-0.017087-0.024-0.026478-0.035478-0.019565-0.023804-0.040174-0.046565-0.061826-0.068413-0.0010435-0.0010434-0.0018261-0.0021521-0.0029348-0.0032608l-2.4456-2.4457c-0.38198-0.38198-1.0014-0.38198-1.3835 0-0.38204 0.38198-0.38204 1.0014-6.52e-5 1.3835l0.77563 0.77576h-1.2809-1.7051v1.9565h0.83563 2.1505l-0.77563 0.77563c-0.38204 0.38204-0.38204 1.0014 0 1.3835 0.19096 0.19109 0.44139 0.28657 0.6917 0.28657 0.25043 0 0.50074-0.095478 0.69176-0.28657l2.4455-2.4456c5.217e-4 -5.217e-4 9.13e-4 -0.0011087 0.0014348-0.0015 0.022304-0.02237 0.04337-0.045717 0.063391-0.070109 0.0095217-0.011544 0.017739-0.023739 0.026674-0.035674 0.010174-0.01363 0.020739-0.027 0.030326-0.041217 0.0094565-0.014087 0.017609-0.028761 0.026217-0.043174 0.0076304-0.012913 0.015783-0.025565 0.022956-0.03887 0.0078913-0.014674 0.014544-0.02987 0.021652-0.04487 0.006587-0.013891 0.0135-0.027587 0.019435-0.041935 0.0060652-0.014544 0.010891-0.029413 0.016174-0.044217 0.0055435-0.015261 0.011413-0.030456 0.016109-0.046174 0.0044348-0.014674 0.0077609-0.029609 0.011478-0.044544 0.0041087-0.016044 0.0086087-0.031956 0.01187-0.048326 0.0033913-0.017022 0.0053478-0.034174 0.0078261-0.051391 0.0020869-0.014413 0.0047608-0.028565 0.0062608-0.043239 0.0031305-0.03163 0.0047609-0.063456 0.0047609-0.095217 0-4.565e-4 1.304e-4 -9.131e-4 1.304e-4 -0.0013044 0-5.217e-4 -1.304e-4 -0.0011087-1.304e-4 -0.0016304-6.52e-5 -0.031761-0.0016957-0.063391-0.0048261-0.094891z"/>
<polygon points="17.036 7.2065 10.435 0.60567 10.435 3.3726 10.435 7.2065 14.269 7.2065"/>
</g>
</g>
</g>
</svg>

<?xml version="1.0" encoding="UTF-8"?>
<svg width="24px" height="22px" viewBox="0 0 24 22" version="1.1" xmlns="http://www.w3.org/2000/svg" xmlns:xlink="http://www.w3.org/1999/xlink">
    <!-- Generator: Sketch 55.2 (78181) - https://sketchapp.com -->
    <title>export(2)</title>
    <desc>Created with Sketch.</desc>
    <g id="Symbols" stroke="none" stroke-width="1" fill="none" fill-rule="evenodd">
        <g id="Icons/24px/ExportW" transform="translate(0.000000, -1.000000)" fill="#FFFFFF">
            <g id="export(2)" transform="translate(0.000000, 1.000000)">
                <path d="M11.4130435,15.2935435 C10.8727174,15.2935435 10.4347826,14.8555435 10.4347826,14.3152826 C10.4347826,13.7750217 10.8727826,13.3370217 11.4130435,13.3370217 L15.6521739,13.337087 L17.6086957,13.337087 L17.6086957,12.2936087 L17.6086957,9.16304348 L15.6521739,9.16304348 L14.2687174,9.16304348 L9.45652174,9.16304348 C8.91632609,9.16304348 8.47826087,8.72504348 8.47826087,8.18478261 L8.47826087,3.37258696 L8.47826087,1.98913043 L8.47826087,0.0326086957 L0.97826087,0.0326086957 C0.438065217,0.0326086957 0,0.470608696 0,1.01086957 L0,20.576087 C0,21.1163478 0.438065217,21.5543478 0.97826087,21.5543478 L16.6304348,21.5543478 C17.1707609,21.5543478 17.6086957,21.1163478 17.6086957,20.576087 L17.6086957,17.2935652 L17.6086957,15.2936087 L15.6521739,15.2936087 L11.4130435,15.2935435 Z" id="XMLID_222_"></path>
                <path d="M23.9298913,14.2188913 C23.9284565,14.2042174 23.9257174,14.1900652 23.9236304,14.175587 C23.9211522,14.1584348 23.9191957,14.1412826 23.9158043,14.1243261 C23.9124783,14.1077609 23.9080435,14.0917826 23.9039348,14.0756087 C23.9001522,14.0608696 23.8969565,14.0460652 23.8925217,14.0314565 C23.8877609,14.0156739 23.8818261,14.0003478 23.8762826,13.9849565 C23.871,13.9702826 23.8661739,13.9554783 23.8602391,13.941 C23.8542391,13.926587 23.8472609,13.9128261 23.8406087,13.8988696 C23.8336304,13.8838696 23.8269783,13.8688696 23.8191522,13.8542609 C23.8119783,13.8408913 23.8038261,13.8281739 23.796,13.8151304 C23.7873913,13.8007174 23.7792391,13.7862391 23.769913,13.7722174 C23.7603913,13.7579348 23.7496957,13.7445 23.7394565,13.7308043 C23.730587,13.7189348 23.7223696,13.7068043 23.7129783,13.6953261 C23.693413,13.6715217 23.6728043,13.6487609 23.6511522,13.626913 C23.6501087,13.6258696 23.6493261,13.6247609 23.6482174,13.6236522 L21.2026304,11.1779348 C20.8206522,10.7959565 20.2012174,10.7959565 19.8191739,11.1779348 C19.4371304,11.559913 19.4371304,12.1793478 19.8191087,12.5613913 L20.5947391,13.3371522 L19.3138043,13.3371522 L17.6086957,13.3371522 L17.6086957,15.2936739 L18.4443261,15.2936739 L20.5948043,15.2936739 L19.8191739,16.0693043 C19.4371304,16.4513478 19.4371304,17.0707174 19.8191739,17.4527609 C20.0101304,17.6438478 20.2605652,17.7393261 20.5108696,17.7393261 C20.7613043,17.7393261 21.0116087,17.6438478 21.2026304,17.4527609 L23.6481522,15.0071739 C23.6486739,15.0066522 23.6490652,15.0060652 23.649587,15.0056739 C23.6718913,14.9833043 23.6929565,14.9599565 23.7129783,14.9355652 C23.7225,14.9240217 23.7307174,14.9118261 23.7396522,14.8998913 C23.7498261,14.8862609 23.7603913,14.8728913 23.7699783,14.8586739 C23.7794348,14.844587 23.787587,14.829913 23.7961957,14.8155 C23.8038261,14.802587 23.8119783,14.7899348 23.8191522,14.7766304 C23.8270435,14.7619565 23.8336957,14.7467609 23.8408043,14.7317609 C23.8473913,14.7178696 23.8543043,14.7041739 23.8602391,14.6898261 C23.8663043,14.6752826 23.8711304,14.660413 23.876413,14.6456087 C23.8819565,14.6303478 23.8878261,14.6151522 23.8925217,14.5994348 C23.8969565,14.5847609 23.9002826,14.5698261 23.904,14.5548913 C23.9081087,14.5388478 23.9126087,14.5229348 23.9158696,14.5065652 C23.9192609,14.4895435 23.9212174,14.4723913 23.9236957,14.4551739 C23.9257826,14.4407609 23.9284565,14.4266087 23.9299565,14.4119348 C23.933087,14.3803043 23.9347174,14.3484783 23.9347174,14.3167174 C23.9347174,14.3162609 23.9348478,14.3158043 23.9348478,14.315413 C23.9348478,14.3148913 23.9347174,14.3143043 23.9347174,14.3137826 C23.9346522,14.2820217 23.9330217,14.2503913 23.9298913,14.2188913 Z" id="XMLID_223_"></path>
                <polygon id="XMLID_224_" points="17.0356957 7.20652174 10.4347826 0.605673913 10.4347826 3.37258696 10.4347826 7.20652174 14.2687174 7.20652174"></polygon>
            </g>
        </g>
    </g>
</svg>
